places/16/folder-documents.svg

<?xml version="1.0" encoding="UTF-8" standalone="no"?>
<svg
   xmlns:dc="http://purl.org/dc/elements/1.1/"
   xmlns:cc="http://creativecommons.org/ns#"
   xmlns:rdf="http://www.w3.org/1999/02/22-rdf-syntax-ns#"
   xmlns:svg="http://www.w3.org/2000/svg"
   xmlns="http://www.w3.org/2000/svg"
   xmlns:xlink="http://www.w3.org/1999/xlink"
   version="1.1"
   width="16"
   height="16"
   id="svg8498">
  <defs
     id="defs8500">
    <linearGradient
       x1="32.892288"
       y1="8.0590115"
       x2="36.358372"
       y2="5.4565363"
       id="linearGradient3078"
       xlink:href="#linearGradient8589"
       gradientUnits="userSpaceOnUse"
       gradientTransform="matrix(0.34972769,0,0,0.35610773,-1.348519,0.29391874)" />
    <linearGradient
       id="linearGradient8589">
      <stop
         id="stop8591"
         style="stop-color:#fefefe;stop-opacity:1"
         offset="0" />
      <stop
         id="stop8593"
         style="stop-color:#cbcbcb;stop-opacity:1"
         offset="1" />
    </linearGradient>
    <radialGradient
       cx="102"
       cy="112.3047"
       r="139.55859"
       id="radialGradient3085"
       xlink:href="#XMLID_8_"
       gradientUnits="userSpaceOnUse"
       gradientTransform="matrix(0.12846887,0,0,-0.14049355,-1.243349,17.721389)" />
    <radialGradient
       cx="102"
       cy="112.3047"
       r="139.55859"
       id="XMLID_8_"
       gradientUnits="userSpaceOnUse">
      <stop
         id="stop41"
         style="stop-color:#b7b8b9;stop-opacity:1"
         offset="0" />
      <stop
         id="stop47"
         style="stop-color:#ececec;stop-opacity:1"
         offset="0.18851049" />
      <stop
         id="stop49"
         style="stop-color:#fafafa;stop-opacity:0"
         offset="0.25718147" />
      <stop
         id="stop51"
         style="stop-color:#ffffff;stop-opacity:0"
         offset="0.30111277" />
      <stop
         id="stop53"
         style="stop-color:#fafafa;stop-opacity:0"
         offset="0.53130001" />
      <stop
         id="stop55"
         style="stop-color:#ebecec;stop-opacity:0"
         offset="0.84490001" />
      <stop
         id="stop57"
         style="stop-color:#e1e2e3;stop-opacity:0"
         offset="1" />
    </radialGradient>
    <linearGradient
       x1="-51.786404"
       y1="50.786446"
       x2="-51.786404"
       y2="2.9062471"
       id="linearGradient7360"
       xlink:href="#linearGradient3104-9"
       gradientUnits="userSpaceOnUse"
       gradientTransform="matrix(0.25378586,0,0,0.30501865,19.128981,-0.68547126)" />
    <linearGradient
       id="linearGradient3104-9">
      <stop
         id="stop3106-5"
         style="stop-color:#000000;stop-opacity:0.33950618"
         offset="0" />
      <stop
         id="stop3108-5"
         style="stop-color:#000000;stop-opacity:0.24691358"
         offset="1" />
    </linearGradient>
    <linearGradient
       x1="23.99999"
       y1="6.2052388"
       x2="23.99999"
       y2="41.589603"
       id="linearGradient7363"
       xlink:href="#linearGradient3977"
       gradientUnits="userSpaceOnUse"
       gradientTransform="matrix(0.24324324,0,0,0.35135133,2.162161,-0.43242126)" />
    <linearGradient
       id="linearGradient3977">
      <stop
         id="stop3979"
         style="stop-color:#ffffff;stop-opacity:1"
         offset="0" />
      <stop
         id="stop3981"
         style="stop-color:#ffffff;stop-opacity:0.23529412"
         offset="0.02929282" />
      <stop
         id="stop3983"
         style="stop-color:#ffffff;stop-opacity:0.15686275"
         offset="0.97230476" />
      <stop
         id="stop3985"
         style="stop-color:#ffffff;stop-opacity:0.39215687"
         offset="1" />
    </linearGradient>
    <linearGradient
       id="linearGradient3600">
      <stop
         id="stop3602"
         style="stop-color:#f4f4f4;stop-opacity:1"
         offset="0" />
      <stop
         id="stop3604"
         style="stop-color:#dbdbdb;stop-opacity:1"
         offset="1" />
    </linearGradient>
    <linearGradient
       x1="25.132275"
       y1="0.98520643"
       x2="25.132275"
       y2="47.013336"
       id="linearGradient8496"
       xlink:href="#linearGradient3600"
       gradientUnits="userSpaceOnUse"
       gradientTransform="matrix(0.28571361,0,0,0.30419701,1.1428709,0.23260874)" />
  </defs>
  <metadata
     id="metadata8503">
    <rdf:RDF>
      <cc:Work
         rdf:about="">
        <dc:format>image/svg+xml</dc:format>
        <dc:type
           rdf:resource="http://purl.org/dc/dcmitype/StillImage" />
        <dc:title />
      </cc:Work>
    </rdf:RDF>
  </metadata>
  <g
     id="layer1">
    <path
       d="m 3.000001,1.0000087 c 2.29151,0 6.35344,8.9e-4 6.35344,8.9e-4 l 3.64655,3.2679703 10e-6,10.73114 c 0,0 -6.66667,0 -10,0 0,-4.66667 0,-9.33333 0,-14.0000003 z"
       id="path4160"
       style="fill:url(#linearGradient8496);fill-opacity:1;stroke:none;display:inline" />
    <path
       d="m 12.500001,14.500009 -9,0 0,-13 5.49894,0 3.50106,3.33947 z"
       id="rect6741-1"
       style="fill:none;stroke:url(#linearGradient7363);stroke-width:1;stroke-linecap:round;stroke-linejoin:miter;stroke-miterlimit:4;stroke-opacity:1;stroke-dasharray:none;stroke-dashoffset:0" />
    <path
       d="m 2.499961,0.49997874 6.76766,5.1e-4 c 0.61416,0 4.23241,2.73141026 4.23241,3.88354026 l 10e-6,11.11601 c 0,0 -7.33339,0 -11.00008,0 0,-5.00002 0,-15.00006026 0,-15.00006026 z"
       id="path4160-8"
       style="fill:none;stroke:url(#linearGradient7360);stroke-width:0.99992192;stroke-linecap:butt;stroke-linejoin:round;stroke-miterlimit:4;stroke-opacity:1;stroke-dasharray:none;stroke-dashoffset:0;display:inline" />
    <path
       d="m 9.326881,1.0123287 3.65217,3.1875403 c 0,11.15219 -12.05670008,-3.1875403 -3.65217,-3.1875403 z"
       id="path4191"
       style="fill:url(#radialGradient3085);fill-opacity:1" />
    <path
       d="m 6.172041,1.0126387 c 1.11697,0 0.82796,4.9873703 0.82796,4.9873703 0,0 6.1005,-0.69597 6.1005,0.8853 0,-0.38528 -0.0846,-2.03569 -0.1616,-2.15591 -0.55326,-0.86374 -3.68844,-3.37544 -4.55138,-3.62946 -1.21584,-0.12804026 -2.21548,-0.0873 -2.21548,-0.0873 z"
       id="path4474-4-2"
       style="opacity:0.05;fill:#000000;fill-opacity:1;fill-rule:evenodd;stroke:none;display:inline" />
    <path
       d="m 7.000001,0.98754874 c 1.11697,0 1,4.01246026 1,4.01246026 0,0 5.01089,-0.58127 5.01089,1 0,-0.38528 0.0301,-1.8063 -0.0469,-1.92652 -0.55326,-0.86374 -2.94292,-2.80197 -3.80586,-3.0559903 -0.69408,-0.058 -2.15813,-0.0299 -2.15813,-0.0299 z"
       id="path4474-4"
       style="opacity:0.12000002;fill:#000000;fill-opacity:1;fill-rule:evenodd;stroke:none;display:inline" />
    <path
       d="m 8.000001,0.98754874 c 1.11697,0 1,3.01246026 1,3.01246026 0,0 4.01089,-0.58127 4.01089,1 0,-0.38528 0.0301,-0.8063 -0.0469,-0.92652 -0.55326,-0.86374 -2.94292,-2.80197 -3.80586,-3.0559903 -0.17779,-0.005 -0.98055,-0.02 -1.15813,-0.0299 z"
       id="path4474"
       style="fill:url(#linearGradient3078);fill-opacity:1;fill-rule:evenodd;stroke:none;display:inline" />
  </g>
</svg>

<svg xmlns="http://www.w3.org/2000/svg" xmlns:xlink="http://www.w3.org/1999/xlink" viewBox="0 0 16 16"><defs><linearGradient x1="32.892" y1="8.059" x2="36.358" y2="5.457" id="j" xlink:href="#a" gradientUnits="userSpaceOnUse" gradientTransform="matrix(.34973 0 0 .3561 -1.35 .294)"/><linearGradient id="a"><stop offset="0" stop-color="#fefefe"/><stop offset="1" stop-color="#cbcbcb"/></linearGradient><radialGradient cx="102" cy="112.305" r="139.559" id="i" xlink:href="#b" gradientUnits="userSpaceOnUse" gradientTransform="matrix(.12847 0 0 -.1405 -1.243 17.72)"/><radialGradient cx="102" cy="112.305" r="139.559" id="b" gradientUnits="userSpaceOnUse"><stop offset="0" stop-color="#b7b8b9"/><stop offset=".189" stop-color="#ececec"/><stop offset=".257" stop-color="#fafafa" stop-opacity="0"/><stop offset=".301" stop-color="#fff" stop-opacity="0"/><stop offset=".531" stop-color="#fafafa" stop-opacity="0"/><stop offset=".845" stop-color="#ebecec" stop-opacity="0"/><stop offset="1" stop-color="#e1e2e3" stop-opacity="0"/></radialGradient><linearGradient x1="-51.786" y1="50.786" x2="-51.786" y2="2.906" id="h" xlink:href="#c" gradientUnits="userSpaceOnUse" gradientTransform="matrix(.2538 0 0 .30502 19.13 -.685)"/><linearGradient id="c"><stop offset="0" stop-opacity=".34"/><stop offset="1" stop-opacity=".247"/></linearGradient><linearGradient x1="24" y1="6.205" x2="24" y2="41.59" id="g" xlink:href="#d" gradientUnits="userSpaceOnUse" gradientTransform="matrix(.24324 0 0 .35135 2.162 -.432)"/><linearGradient id="d"><stop offset="0" stop-color="#fff"/><stop offset=".029" stop-color="#fff" stop-opacity=".235"/><stop offset=".972" stop-color="#fff" stop-opacity=".157"/><stop offset="1" stop-color="#fff" stop-opacity=".392"/></linearGradient><linearGradient id="e"><stop offset="0" stop-color="#f4f4f4"/><stop offset="1" stop-color="#dbdbdb"/></linearGradient><linearGradient x1="25.132" y1=".985" x2="25.132" y2="47.013" id="f" xlink:href="#e" gradientUnits="userSpaceOnUse" gradientTransform="matrix(.2857 0 0 .3042 1.143 .233)"/></defs><path d="M3 1h6.353L13 4.27V15H3V1z" fill="url(#f)"/><path d="M12.5 14.5h-9v-13H9l3.5 3.34z" fill="none" stroke="url(#g)" stroke-linecap="round"/><path d="M2.5.5h6.768C9.882.5 13.5 3.232 13.5 4.384V15.5h-11V.5z" fill="none" stroke="url(#h)" stroke-linejoin="round"/><path d="M9.327 1.012L12.98 4.2c0 11.152-12.058-3.188-3.653-3.188z" fill="url(#i)"/><path d="M6.172 1.013C7.29 1.013 7 6 7 6s6.1-.696 6.1.885c0-.385-.084-2.035-.16-2.156-.554-.868-3.69-3.38-4.552-3.63-1.216-.13-2.216-.09-2.216-.09z" opacity=".05" fill-rule="evenodd"/><path d="M7 .988C8.117.988 8 5 8 5s5.01-.58 5.01 1c0-.385.03-1.806-.046-1.927-.553-.863-2.943-2.8-3.806-3.056C8.464.96 7 .987 7 .987z" opacity=".12" fill-rule="evenodd"/><path d="M8 .988C9.117.988 9 4 9 4s4.01-.58 4.01 1c0-.385.03-.806-.046-.927-.553-.863-2.943-2.8-3.806-3.056-.178-.005-.98-.02-1.158-.03z" fill="url(#j)" fill-rule="evenodd"/></svg>
